X: 17
T:De'il's Awa wi' th'Exciseman, the
M:6/8
L:1/8
R:jIG
K:G
D|"G"G2d ded|"D"c2B ABc|"G"d2G G2A|"G"B3 "D7"d2 D|"G"G2d ded|!
"D"c2B ABc|"G"d2G G2A|"G"B3 "D7"d2 ||c|"G"BAB G2 B|"C"AGA "D7"D2D|!
"G"G2G G2A|"G"B3 "D7"d3|"G"BAB G2 B|"Am"AGA "D7"D2f|"G"g2G G2A|"G"B3 "D7
"d2||
